build/images/img/briefcase.svg

<?xml version="1.0" encoding="utf-8"?>
<!-- Generated by IcoMoon.io -->
<!DOCTYPE svg PUBLIC "-//W3C//DTD SVG 1.1//EN" "http://www.w3.org/Graphics/SVG/1.1/DTD/svg11.dtd">
<svg version="1.1" xmlns="http://www.w3.org/2000/svg" xmlns:xlink="http://www.w3.org/1999/xlink" width="48" height="41" viewBox="0 0 20 20">
<path fill="#feb71d" d="M18.5 5h-4.5v-1.5c0-0.827-0.673-1.5-1.5-1.5h-5c-0.827 0-1.5 0.673-1.5 1.5v1.5h-4.5c-0.827 0-1.5 0.673-1.5 1.5v11c0 0.827 0.673 1.5 1.5 1.5h17c0.827 0 1.5-0.673 1.5-1.5v-11c0-0.827-0.673-1.5-1.5-1.5zM7 3.5c0-0.276 0.224-0.5 0.5-0.5h5c0.276 0 0.5 0.224 0.5 0.5v1.5h-6v-1.5zM1.5 6h17c0.276 0 0.5 0.224 0.5 0.5v7.5h-2v-0.5c0-0.276-0.224-0.5-0.5-0.5h-2c-0.276 0-0.5 0.224-0.5 0.5v0.5h-8v-0.5c0-0.276-0.224-0.5-0.5-0.5h-2c-0.276 0-0.5 0.224-0.5 0.5v0.5h-2v-7.5c0-0.276 0.224-0.5 0.5-0.5zM16 14v1h-1v-1h1zM5 14v1h-1v-1h1zM18.5 18h-17c-0.276 0-0.5-0.224-0.5-0.5v-2.5h2v0.5c0 0.276 0.224 0.5 0.5 0.5h2c0.276 0 0.5-0.224 0.5-0.5v-0.5h8v0.5c0 0.276 0.224 0.5 0.5 0.5h2c0.276 0 0.5-0.224 0.5-0.5v-0.5h2v2.5c0 0.276-0.224 0.5-0.5 0.5z"></path>
</svg>

<svg xmlns="http://www.w3.org/2000/svg" width="48" height="41" viewBox="0 0 20 20"><path fill="#feb71d" d="M18.5 5H14V3.5c0-.827-.673-1.5-1.5-1.5h-5C6.673 2 6 2.673 6 3.5V5H1.5C.673 5 0 5.673 0 6.5v11c0 .827.673 1.5 1.5 1.5h17c.827 0 1.5-.673 1.5-1.5v-11c0-.827-.673-1.5-1.5-1.5zM7 3.5a.5.5 0 01.5-.5h5a.5.5 0 01.5.5V5H7V3.5zM1.5 6h17a.5.5 0 01.5.5V14h-2v-.5a.5.5 0 00-.5-.5h-2a.5.5 0 00-.5.5v.5H6v-.5a.5.5 0 00-.5-.5h-2a.5.5 0 00-.5.5v.5H1V6.5a.5.5 0 01.5-.5zM16 14v1h-1v-1h1zM5 14v1H4v-1h1zm13.5 4h-17a.5.5 0 01-.5-.5V15h2v.5a.5.5 0 00.5.5h2a.5.5 0 00.5-.5V15h8v.5a.5.5 0 00.5.5h2a.5.5 0 00.5-.5V15h2v2.5a.5.5 0 01-.5.5z"/></svg>
